X: 30055
T: Off To The Hunt
R: jig
M: 6/8
K: Edorian
|:~E3 EFA|~B3 AFE|D2E FED|AFD FED|
~E3 EFA|BAB dfe|dBG FGA|1 BGE E2D:|2 BGE E2d||
|:e^de ~E3|e^de E2e|d2D DEF|AFD DEF|
~G3 AGA|BAB dfe|dBG FGA|1 BGE E2d:|2 BGE E2D||

